X:1
T:Anima mea dilecta
T:Lassus
T:Anima mea dilecta
T:Copyright © 2015 by CPDL.  This edition can be fully distributed, duplicated, performed, and recorded. 
T:Copyright © 2015 by CPDL.  This edition can be fully distributed, duplicated, performed, and recorded. 
T:Copyright © 2015 by CPDL.  This edition can be fully distributed, duplicated, performed, and recorded. 
T:Copyright © 2015 by CPDL.  This edition can be fully distributed, duplicated, performed, and recorded. 
T:Copyright © 2015 by CPDL.  This edition can be fully distributed, duplicated, performed, and recorded. 
T:Copyright © 2015 by CPDL.  This edition can be fully distributed, duplicated, performed, and recorded. 
T:Copyright © 2015 by CPDL.  This edition can be fully distributed, duplicated, performed, and recorded. 
C:Lassus
Z:Copyright © 2015 by CPDL.  This edition can be fully distributed, duplicated, performed, and recorded.
Z:
%%score [ 1 2 3 4 ]
L:1/8
Q:1/2=80
M:4/2
K:G
V:1 treble nm="Soprano" snm="S."
V:2 treble nm="Alto" snm="A."
V:3 treble-8 transpose=-12 nm="Tenor" snm="T."
V:4 bass nm="Bass" snm="B."
V:1
"^Good Friday Tenebrae:I delivered my beloved soul into the hands of the wicked,and my possessions have become to me like a lion in the forest.My adversary spoke out against me saying:Come together and make haste to devour him.They placed me in a solitary desert and all the earth mourned for me; because nobody could be found who would claim me and be kind to me.Vs:  Men without mercy rose up against me, and they spared not my soul." F8 F4 E4 | %1
w: A- ni- mam|
 F8 G4 G4 | G8 G8 | A6 A2 A4 G4 | =F4 E4 E8 | c8 A8 | B8 z8 | z16 | z16 | z16 | z16 | z8 z4 e4- | %12
w: me- am di-|le- cta|tra- di- di in|ma- nus i-|ni- quo-|rum,|||||si-|
 e4 A8 B4- | B4 E8 e4- | e4 (c6 BA B4) | c4 G4 A4 B4- | B4 c4 A4 G4 | F4 B4 A4 G4- | %18
w: * cut le-|* o in|_ sil- * * *|va: de- dit con-|* tra me vo-|ces: ad- ver- sa-|
 G2 G2 c4 B6 A2 | G2 F2 F2 ED E8 | F4 A4 B4 B4- | B2 B2 B8 A4 | A6 A2 A4 B4 | c4 c4 B4 A4- | %24
w: * ri- us di- *||cens: Con- gre- ga-|* mi- ni et|pro- pe- ra- te,|ad de- vo- ran-|
 A2 G2 G8 F4 | B8 E8 | z8 z4 e4- | e4 d4 c4 B4 | d4 c4 B4 A4 | B8 z4 G4 | d6 d2 ^c4 d4 | %31
w: * * * dum|il- lum;|in|_ de- ser- to|so- li- tu- di-|nis, et|lu- xit su- per|
 e4 =c6 B2 B4- | B4 A2 G2 F2 G4 F2 | G4 G4 G8 | F16 ||S z4 G8 F4- | F4 G4 F4 B4 | E8 B4 G4- | %38
w: me o- * *||* mnis ter-|ra:|Qui- a|_ non est in-|ven- tus qui|
 G4 G4 F4 B4- | B4 A4 F4 A4 | B4 d4 G4 c4- | c2 B2 A4 G4 B4- | B2 A2 G6 FE F4 | G16!fine! |] z16 | %45
w: _ me a- gno-|* sce- ret, et|fa- ce- ret be-|* * * ne, be-||ne.||
 z16 | z16 | z16 | z16 | z16 | z16 | z16 | z16 | z16 | z16 | z16 | z16 |] %57
w: ||||||||||||
V:2
 D8 D4 ^C4 | D8 E4 D4 | E8 D8 | =F6 F2 F4 E4 | D4 C4 B,4 G4 | (E8 D8) | D4 D4 E8 | F8 G8 | A12 G4 | %9
w: A- ni- mam|me- am di-|le- cta|tra- di- di in|ma- nus i- ni-|quo- *|rum, et fa-|cta est|mi- hi|
 E4 =F8 E4 | D8 (E8 | D8) ^C8 | E8 F8 | B,8 A,8 | G,8 G8 | E4 E8 F4 | G4 E4 F4 D4- | D4 G4 F4 D4 | %18
w: hae- re- di-|tas me-|* a|si- cut|le- o|in sil-|va: de- dit|con- tra me vo-|* ces: ad- ver-|
 E6 E2 G4 E4- | E2 D2 D6 ^CB, C4 | D4 F4 G4 G4- | G2 G2 G4 G4 E4- | E2 E2 E4 F4 G4 | G4 A4 G4 D4 | %24
w: sa- ri- us di-||cens: Con- gre- ga-|* mi- ni et pro-|* pe- ra- te, ad|de- vo- ran- dum|
 D16- | D8 C8 | z8 (E6 F2 | G4) F4 A4 G4 | F4 E4 D4 C4 | B,4 D4 D8- | D4 F4 E4 F4 | G8 z4 G,4 | %32
w: il-|* lum;|in _|_ de- ser- to|so- li- tu- di-|nis, et lu-|* xit su- per|me, su-|
 B,4 C4 D4 D4 | (E8 D8) | D16 || D8 D8 | D8 D4 D4 | C8 D4 D4 | E4 D4 D6 D2 | %39
w: per me o- mnis|ter- *|ra:|Qui- a|non est in-|ven- tus qui|me a- gno- sce-|
 D2 E2 F2 G2 A2 G2 F2 E2 | D8 E8 | E4 E4 E8 | D16 | D16 |] z16 | z16 | z16 | z16 | z16 | z16 | %50
w: ret, _ _ _ _ _ _ _|_ et|fa- ce- ret|be-|ne.|||||||
 z16 | z16 | z16 | z16 | z16 | z16 | z16 |] %57
w: |||||||
V:3
 A8 A4 A4 | A8 c4 B4 | c8 B8 | c6 c2 c4 c4 | A8 G4 B4 | A4 (G6 FE F4) | G4 G8 A4- | A4 B8 c4- | %8
w: A- ni- mam|me- am di-|le- cta|tra- di- di in|ma- nus i-|ni- quo- * * *|rum, et fa-|* cta est|
 (c4 B2 A2 c4) B4 | c4 A4 (c6 B2 | A4) B4 G4 A4- | (A2 ^GF G4) A8 | ^c8 d8 | G8 =c8 | e8 d8 | %15
w: _ _ _ _ mi-|hi hae- re- *|* di- tas me-|* * * * a|si- cut|le- o|in sil-|
 G4 c8 d4 | e4 A4 d4 B4- | B4 G4 d4 B4 | c4 A4 (E2 F2 G2 A2 | B8) A8 | A4 d4 d4 d4- | %21
w: va: de- dit|con- tra me vo-|* ces: ad- ver-|sa- ri- us _ _ _|_ di-|cens: Con- gre- ga-|
 d2 d2 d4 e4 ^c4- | c2 ^c2 c4 d4 d4 | e12 A4 | B4 B4 A8 | G4 G8 A4 | F4 (B6 AG A4) | B8 z8 | z16 | %29
w: * mi- ni et pro-|* pe- ra- te, ad|de- vo-|ran- dum il-|lum; po- su-|e- runt _ _ _|me||
 z4 G4 B8- | B4 A4 A4 A4 | (3c6 d2 e4 (d8 | G8) (A8 | c8) B8 | A16 || B8 A8 | B8 A4 G4 | G8 G4 B4 | %38
w: et lu-|* xit su- per|me, _ _ o-|* mnis|_ ter-|ra:|Qui- a|non est in-|ven- tus qui|
 c4 B8 G4- | G4 d4 d4 d4- | d2 c2 B2 A2 B4 A2 G2 | A2 B2 c4 B4 G4 | B8 A8 | G16 |] z16 | G8 G4 A4 | %46
w: me a- gno-|* sce- ret, et|_ _ _ _ _ _ _|* * * fa- ce-|ret be-|ne.||In- sur- re-|
 B4 B4 c8 | G8 z4 (A2 B2 | c2 d2 e4) d8 | A8 B4 c4- | (c2 BA B4) c4 e4 | d6 d2 c8 | z4 B4 A4 d4 | %53
w: xe- runt in|me vi- *|* * * ri|abs- que mi-|* * * * se- ri-|cor- di- a,|et non pe-|
 c2 A2 c4 (B6 c2 | d8) c4 A4 | c4 B4 A8 | G16 |] %57
w: per- * * ce- *|* runt a-|ni- mae me-|ae.|
V:4
 D,8 D,4 A,,4 | D,8 C,4 G,4 | C,8 G,8 | =F,6 F,2 F,4 C,4 | D,4 A,,4 E,8 | C,8 D,8 | G,,8 C,8 | %7
w: A- ni- mam|me- am di-|le- cta|tra- di- di in|ma- nus i-|ni- quo-|rum, et|
 D,8 E,8 | =F,8 E,8 | A,4 D,4 (A,6 G,2 | F,4) G,4 C,8 | B,,8 A,,8 | A,8 D,8 | E,8 A,,8 | C,8 G,,8 | %15
w: fa- cta|est mi-|hi hae- re- *|* di- tas|me- a|si- cut|le- o|in sil-|
 C,8 z8 | z16 | z16 | z16 | z16 | D,8 G,4 G,4- | G,2 G,2 G,4 E,4 A,4- | A,2 A,2 A,4 D,4 G,4 | %23
w: va:|||||Con- gre- ga-|* mi- ni et pro-|* pe- ra- te, ad|
 C,4 A,,4 E,4 F,4 | (G,8 D,8) | G,,8 C,8 | D,4 B,,4 C,8 | B,,8 z8 | z16 | z4 G,,4 G,8- | %30
w: de- vo- ran- dum|il- *|lum; po-|su- e- runt|me||et lu-|
 G,4 D,4 A,,4 D,4 | C,8 (G,6 F,2 | E,8) D,8 | (C,8 G,8) | D,16 || G,8 D,8 | B,,8 D,4 G,,4 | %37
w: * xit su- per|me, o- *|* mnis|ter- *|ra:|Qui- a|non est in-|
 C,8 G,,8 | z16 | z8 D,8 | G,6 F,2 E,2 D,2 C,2 B,,2 | A,,4 A,,4 (E,6 F,2 | G,8) D,8 | G,,16 |] %44
w: ven- tus||et|fa- * * * * *|* ce- ret _|_ be-|ne.|
 C,8 C,4 D,4 | E,4 B,,4 C,8 | G,,8 z4 (A,,2 B,,2 | C,2 D,2 E,4) D,8 | A,8 B,4 G,4- | %49
w: In- sur- re-|xe- runt in|me vi- *|* * * ri|abs- que mi-|
 (G,2 F,E, F,4) G,4 E,4 | D,6 D,2 C,8 | z4 B,,4 A,,4 A,4 | G,2 E,2 G,4 (F,6 G,2 | A,8) G,4 E,4 | %54
w: * * * * se- ri-|cor- di- a,|et non pe-|per- * * ce- *|* runt a-|
 B,,4 D,4 A,,2 B,,2 C,2 D,2 | E,2 F,2 G,6 F,E, F,4 | G,16 |] %57
w: ni- mae me- * * *||ae.|

